X: 13141
T: First Light
R: strathspey
M: 4/4
K: Amixolydian
|:A2 B<d|e>d e<g|A2 B<d|e2 e2|
a2 ge|d>B d<e|g>e dB|1 e2 ed/B/:|2 e2 e2||
|:a2 ge|d>e ga|b>a g<e|g2 a2|
b>a ge|d>e B/A/G|A2 B<d|1 e2 e2:|2 e2 ed/B/||

